dist/img/clients/chargedefi.svg

<svg xmlns="http://www.w3.org/2000/svg" xmlns:xlink="http://www.w3.org/1999/xlink" viewBox="0 0 620 620"><defs><style>.cls-1{fill:#312f30;}.cls-2,.cls-3,.cls-4{fill:#fff;}.cls-2,.cls-3{isolation:isolate;}.cls-2{opacity:0.5;}.cls-3{opacity:0.7;}.cls-5,.cls-6{fill:none;}.cls-5{stroke-width:19.8px;stroke:url(#radial-gradient);}.cls-6{stroke:#fff;stroke-miterlimit:10;stroke-width:7px;}</style><radialGradient id="radial-gradient" cx="93.235" cy="1234.9281" r="3.3" gradientTransform="matrix(123.1999, 134.4425, 134.4425, -123.1999, -177374.224, 139738.5747)" gradientUnits="userSpaceOnUse"><stop offset="0.2729" stop-color="#66bcea"/><stop offset="0.5659" stop-color="#f3f7fc"/><stop offset="0.7448" stop-color="#d3e199"/><stop offset="1" stop-color="#5771b4"/></radialGradient></defs><g id="ALL_logo_s" data-name="ALL logo&apos;s"><circle class="cls-1" cx="310" cy="310" r="297"/><circle class="cls-1" cx="310" cy="310" r="297"/><g id="Charge_Icon" data-name="Charge Icon"><path class="cls-2" d="M231.578,377.6505H388.422a17.5143,17.5143,0,0,1,17.5143,17.5143h0A17.5143,17.5143,0,0,1,388.422,412.679H231.578a17.5143,17.5143,0,0,1-17.5143-17.5142h0A17.5143,17.5143,0,0,1,231.578,377.6505Z"/><path class="cls-3" d="M231.578,320.8737H388.422a17.5143,17.5143,0,0,1,17.5143,17.5142h0a17.5143,17.5143,0,0,1-17.5143,17.5143H231.578a17.5143,17.5143,0,0,1-17.5143-17.5143h0A17.5143,17.5143,0,0,1,231.578,320.8737Z"/><path class="cls-4" d="M231.578,264.0975H388.422a17.5143,17.5143,0,0,1,17.5143,17.5142h0A17.5143,17.5143,0,0,1,388.422,299.126H231.578a17.5143,17.5143,0,0,1-17.5143-17.5143h0A17.5143,17.5143,0,0,1,231.578,264.0975Z"/><path class="cls-4" d="M231.578,207.321H388.4221a17.5142,17.5142,0,0,1,17.5142,17.5142v0A17.5143,17.5143,0,0,1,388.422,242.35H231.578a17.5142,17.5142,0,0,1-17.5142-17.5142v0A17.5142,17.5142,0,0,1,231.578,207.321Z"/></g><circle class="cls-5" cx="310" cy="310" r="254.1"/></g><g id="WHITE_RING_FOR_BLACK_BG_copy" data-name="WHITE RING FOR BLACK BG copy"><circle class="cls-6" cx="310" cy="310" r="297"/></g></svg>

<svg xmlns="http://www.w3.org/2000/svg" viewBox="0 0 620 620"><defs><radialGradient id="radial-gradient" cx="93.235" cy="1234.928" r="3.3" gradientTransform="scale(182.354 -182.354) rotate(-47.499 -1357.153 722.19)" gradientUnits="userSpaceOnUse"><stop offset=".273" stop-color="#66bcea"/><stop offset=".566" stop-color="#f3f7fc"/><stop offset=".745" stop-color="#d3e199"/><stop offset="1" stop-color="#5771b4"/></radialGradient><style>.cls-1{fill:#312f30}</style></defs><g id="ALL_logo_s" data-name="ALL logo's"><circle class="cls-1" cx="310" cy="310" r="297"/><circle class="cls-1" cx="310" cy="310" r="297"/><g id="Charge_Icon" data-name="Charge Icon"><path d="M231.578 377.65h156.844a17.514 17.514 0 0 1 17.514 17.515 17.514 17.514 0 0 1-17.514 17.514H231.578a17.514 17.514 0 0 1-17.514-17.514 17.514 17.514 0 0 1 17.514-17.514Z" style="opacity:.5;isolation:isolate;fill:#fff"/><path d="M231.578 320.874h156.844a17.514 17.514 0 0 1 17.514 17.514 17.514 17.514 0 0 1-17.514 17.514H231.578a17.514 17.514 0 0 1-17.514-17.514 17.514 17.514 0 0 1 17.514-17.514Z" style="opacity:.7;isolation:isolate;fill:#fff"/><path d="M231.578 264.098h156.844a17.514 17.514 0 0 1 17.514 17.514 17.514 17.514 0 0 1-17.514 17.514H231.578a17.514 17.514 0 0 1-17.514-17.514 17.514 17.514 0 0 1 17.514-17.514Zm0-56.777h156.844a17.514 17.514 0 0 1 17.514 17.514 17.514 17.514 0 0 1-17.514 17.515H231.578a17.514 17.514 0 0 1-17.514-17.514 17.514 17.514 0 0 1 17.514-17.515Z" style="fill:#fff"/></g><circle cx="310" cy="310" r="254.1" style="stroke-width:19.8px;stroke:url(#radial-gradient);fill:none"/></g><circle cx="310" cy="310" r="297" style="stroke:#fff;stroke-miterlimit:10;stroke-width:7px;fill:none" id="WHITE_RING_FOR_BLACK_BG_copy" data-name="WHITE RING FOR BLACK BG copy"/></svg>
